icons/teamdynamix.svg

<?xml version="1.0" encoding="UTF-8" standalone="no"?>
<svg
   xmlns:dc="http://purl.org/dc/elements/1.1/"
   xmlns:cc="http://creativecommons.org/ns#"
   xmlns:rdf="http://www.w3.org/1999/02/22-rdf-syntax-ns#"
   xmlns:svg="http://www.w3.org/2000/svg"
   xmlns="http://www.w3.org/2000/svg"
   xmlns:xlink="http://www.w3.org/1999/xlink"
   xmlns:sodipodi="http://sodipodi.sourceforge.net/DTD/sodipodi-0.dtd"
   xmlns:inkscape="http://www.inkscape.org/namespaces/inkscape"
   id="svg8"
   version="1.1"
   viewBox="0 0 79.374998 79.375002"
   height="300"
   width="300"
   sodipodi:docname="teamdynamix.svg"
   inkscape:version="0.92.4 (5da689c313, 2019-01-14)">
  <sodipodi:namedview
     pagecolor="#ffffff"
     bordercolor="#666666"
     borderopacity="1"
     objecttolerance="10"
     gridtolerance="10"
     guidetolerance="10"
     inkscape:pageopacity="0"
     inkscape:pageshadow="2"
     inkscape:window-width="2560"
     inkscape:window-height="1411"
     id="namedview24"
     showgrid="false"
     borderlayer="true"
     inkscape:showpageshadow="false"
     inkscape:zoom="0.78666667"
     inkscape:cx="-5.0847458"
     inkscape:cy="150"
     inkscape:window-x="-9"
     inkscape:window-y="-9"
     inkscape:window-maximized="1"
     inkscape:current-layer="svg8" />
  <defs
     id="defs2">
    <linearGradient
       id="linearGradient863">
      <stop
         style="stop-color:#ffffff;stop-opacity:0"
         offset="0"
         id="stop859" />
      <stop
         style="stop-color:#ffffff;stop-opacity:1"
         offset="1"
         id="stop861" />
    </linearGradient>
    <linearGradient
       id="linearGradient857">
      <stop
         style="stop-color:#ffffff;stop-opacity:0"
         offset="0"
         id="stop853" />
      <stop
         style="stop-color:#ffffff;stop-opacity:1"
         offset="1"
         id="stop855" />
    </linearGradient>
    <linearGradient
       id="linearGradient837">
      <stop
         id="stop833"
         offset="0"
         style="stop-color:#ffffff;stop-opacity:0" />
      <stop
         id="stop835"
         offset="1"
         style="stop-color:#ffffff;stop-opacity:1" />
    </linearGradient>
    <linearGradient
       gradientTransform="matrix(3.7795276,0,0,3.7795276,-4.2857144,-824.30536)"
       gradientUnits="userSpaceOnUse"
       y2="238.11837"
       x2="72.563675"
       y1="238.11837"
       x1="4.8819404"
       id="linearGradient839"
       xlink:href="#linearGradient863" />
    <linearGradient
       y2="238.11837"
       x2="72.563675"
       y1="238.11837"
       x1="4.8819404"
       gradientTransform="rotate(120,40.607574,253.35547)"
       gradientUnits="userSpaceOnUse"
       id="linearGradient847"
       xlink:href="#linearGradient837" />
    <linearGradient
       y2="238.11837"
       x2="72.563675"
       y1="238.11837"
       x1="4.8819404"
       gradientTransform="matrix(-1.8897638,-3.2731669,3.2731669,-1.8897638,-602.95017,749.2545)"
       gradientUnits="userSpaceOnUse"
       id="linearGradient851"
       xlink:href="#linearGradient857" />
    <linearGradient
       y2="238.11837"
       x2="72.563675"
       y1="238.11837"
       x1="4.8819404"
       gradientTransform="matrix(-1.8897638,3.2731669,-3.2731669,-1.8897638,1059.4909,480.91096)"
       gradientUnits="userSpaceOnUse"
       id="linearGradient876"
       xlink:href="#linearGradient837" />
    <linearGradient
       y2="238.11837"
       x2="72.563675"
       y1="238.11837"
       x1="4.8819404"
       gradientTransform="matrix(3.7795276,0,0,3.7795276,-4.2857143,-824.30535)"
       gradientUnits="userSpaceOnUse"
       id="linearGradient886"
       xlink:href="#linearGradient863" />
    <linearGradient
       y2="238.11836"
       x2="72.563675"
       y1="238.11836"
       x1="4.8819404"
       gradientTransform="matrix(3.7795276,0,0,3.7795276,-4.2857143,-824.30535)"
       gradientUnits="userSpaceOnUse"
       id="linearGradient886-9"
       xlink:href="#linearGradient863" />
    <linearGradient
       y2="238.11836"
       x2="72.563675"
       y1="238.11836"
       x1="4.8819404"
       gradientTransform="matrix(-1.8897638,3.2731669,-3.2731669,-1.8897638,1059.4909,480.91096)"
       gradientUnits="userSpaceOnUse"
       id="linearGradient876-2"
       xlink:href="#linearGradient863" />
    <linearGradient
       y2="238.11836"
       x2="72.563675"
       y1="238.11836"
       x1="4.8819404"
       gradientTransform="matrix(-1.8897638,-3.2731669,3.2731669,-1.8897638,-602.95017,749.2545)"
       gradientUnits="userSpaceOnUse"
       id="linearGradient851-8"
       xlink:href="#linearGradient863" />
  </defs>
  <metadata
     id="metadata5">
    <rdf:RDF>
      <cc:Work
         rdf:about="">
        <dc:format>image/svg+xml</dc:format>
        <dc:type
           rdf:resource="http://purl.org/dc/dcmitype/StillImage" />
        <dc:title></dc:title>
      </cc:Work>
    </rdf:RDF>
  </metadata>
  <g
     transform="matrix(0.66086717,0,0,0.66086717,14.124732,-128.30048)"
     id="layer1-5">
    <path
       inkscape:connector-curvature="0"
       id="path823"
       transform="matrix(0.26458333,0,0,0.26458333,0,217.62499)"
       d="M 149.64453,11.066406 C 99.196027,11.03617 69.197455,23.300162 48.080078,35.882812 c -18.014884,10.734051 -28.353195,22.893905 -31.5625,35.5 0.199382,-0.588611 0.347656,-0.992187 0.347656,-0.992187 -2.225286,9.501204 -1.028799,18.296874 2.472657,26.261719 0.01331,0.02843 0.02568,0.05751 0.03906,0.08594 4.159114,8.838816 11.587458,17.577756 22.066406,25.898436 13.097598,9.8235 28.883075,16.67482 41.539063,19.89258 6.716599,1.70768 13.130584,3.1144 19.24414,4.28515 7.19581,1.26507 14.617,2.33184 22.25196,3.39844 0,0 11.04618,-22.4131 26.70312,-45.00391 0.0904,-0.1304 0.18471,-0.26022 0.27539,-0.39062 0.63397,-0.91169 1.27146,-1.82203 1.91992,-2.73242 0.0668,-0.0938 0.13424,-0.18753 0.20117,-0.28125 5.20838,-7.293583 10.86305,-14.47899 16.75196,-20.824218 0.0156,-0.01677 0.0313,-0.03403 0.0469,-0.05078 0.003,-0.0034 0.007,-0.0064 0.01,-0.0098 2.55762,-2.752767 5.15826,-5.335343 7.78516,-7.705078 0.004,-0.0037 0.008,-0.008 0.0117,-0.01172 0.13357,-0.120449 0.2667,-0.24399 0.40039,-0.363281 0.009,-0.0085 0.0181,-0.01691 0.0274,-0.02539 0.2898,-0.258389 0.57876,-0.52452 0.86914,-0.777344 0,0 0.002,-0.002 0.002,-0.002 0.87627,-0.762895 1.75412,-1.505645 2.63477,-2.214844 1.39057,-1.11985 2.83095,-2.250979 4.29297,-3.384765 0.39295,-0.304741 0.7858,-0.607192 1.18359,-0.912109 1.33466,-1.023084 2.6925,-2.044068 4.07813,-3.060547 0.22869,-0.16778 0.44967,-0.336517 0.67968,-0.503907 0.19059,-0.138696 0.38471,-0.275671 0.57617,-0.414062 0.90491,-0.654059 1.82044,-1.302205 2.74415,-1.947266 0.33818,-0.236178 0.67698,-0.470434 1.01757,-0.705078 0.87342,-0.601725 1.75427,-1.197536 2.64258,-1.787109 0.26518,-0.176 0.52653,-0.354552 0.79297,-0.529297 1.1202,-0.734697 2.25156,-1.455171 3.39258,-2.164063 0.30393,-0.188829 0.61071,-0.371858 0.91601,-0.558593 0.88369,-0.540493 1.77156,-1.072613 2.66602,-1.59375 0.3779,-0.220177 0.75508,-0.43987 1.13477,-0.65625 1.1753,-0.669799 2.35601,-1.327582 3.54687,-1.957032 1.19567,-0.631992 2.40046,-1.233116 3.60937,-1.818359 0.65408,-0.316648 1.30939,-0.63005 1.9668,-0.931641 0.15126,-0.06939 0.30171,-0.142377 0.45313,-0.210937 0.87573,-0.39652 1.75408,-0.775099 2.63476,-1.142578 0.20549,-0.08574 0.41147,-0.167869 0.61719,-0.251953 0.79075,-0.323205 1.58307,-0.635907 2.37695,-0.933594 0.12956,-0.04858 0.25906,-0.09861 0.38867,-0.146484 0.92078,-0.340073 1.84175,-0.661795 2.76563,-0.964844 0.14689,-0.04818 0.29445,-0.09146 0.44141,-0.138672 0.79351,-0.254919 1.58781,-0.495119 2.38281,-0.720703 0.18811,-0.05338 0.37628,-0.108479 0.56445,-0.160157 0.89669,-0.246266 1.79391,-0.475338 2.69141,-0.68164 0.17576,-0.0404 0.35157,-0.07447 0.52734,-0.113281 0.77426,-0.170979 1.54817,-0.325547 2.32227,-0.464844 0.18889,-0.03399 0.37755,-0.06951 0.5664,-0.101563 0.92252,-0.156554 1.84447,-0.295581 2.76563,-0.404296 0.0821,-0.0097 0.16397,-0.01609 0.24609,-0.02539 0.83865,-0.09501 1.67702,-0.163637 2.51367,-0.216797 0.20063,-0.01274 0.40109,-0.02684 0.60157,-0.03711 0.9184,-0.04706 1.83519,-0.0767 2.75,-0.07031 0.54055,0.0038 1.08012,0.01984 1.61914,0.04297 0.24311,0.01045 0.48575,0.02849 0.72851,0.04297 0.31853,0.01896 0.63718,0.03849 0.95508,0.06445 0.24828,0.02032 0.49627,0.0437 0.74414,0.06836 0.31099,0.03087 0.62132,0.06573 0.93164,0.103516 0.24111,0.02941 0.48198,0.06011 0.72266,0.09375 0.38032,0.05307 0.75948,0.113953 1.13867,0.177734 0.15677,0.02641 0.31414,0.04791 0.4707,0.07617 0.55189,0.09948 1.10312,0.209165 1.65235,0.332031 0.009,0.002 0.0182,0.0038 0.0273,0.0059 0.0419,0.0094 0.0832,0.02172 0.125,0.03125 0.51711,0.117806 1.03235,0.245659 1.54688,0.384765 0.1187,0.03214 0.23691,0.06828 0.35547,0.101563 0.45076,0.126389 0.90098,0.261082 1.3496,0.404297 0.11266,0.03601 0.22539,0.07229 0.3379,0.109375 0.46166,0.151971 0.92164,0.314099 1.38085,0.484375 0.10624,0.03944 0.21227,0.07871 0.31836,0.11914 0.48878,0.18604 0.97713,0.382501 1.46289,0.589844 0.0616,0.02634 0.12396,0.04948 0.18555,0.07617 1.13955,0.493209 2.26936,1.047172 3.39063,1.662109 0.002,0.0011 0.004,0.0028 0.006,0.0039 0.005,0.0025 0.009,0.0053 0.0137,0.0078 0.54056,0.296846 1.07931,0.609429 1.61523,0.935547 0.0491,0.02992 0.0974,0.06162 0.14649,0.0918 0.51213,0.314497 1.02165,0.642488 1.52929,0.984375 0.037,0.02497 0.0743,0.04911 0.11133,0.07422 1.65736,1.123523 3.29023,2.393462 4.89453,3.822265 0,0 0.002,0.002 0.002,0.002 0.33133,0.29512 0.66331,0.589803 0.99218,0.898438 0,0 -31.87016,-40.782533 -124.07617,-40.835938 z"
       style="fill:url(#linearGradient886-9);fill-opacity:1;stroke:#974242;stroke-width:0;stroke-linecap:butt;stroke-linejoin:miter;stroke-miterlimit:4;stroke-dasharray:none;stroke-opacity:1" />
    <rect
       y="216.20758"
       x="-3.0238097"
       height="83.816216"
       width="84.855659"
       id="rect841"
       style="opacity:0;fill:#ffffff;fill-opacity:1;fill-rule:evenodd;stroke:#974242;stroke-width:0;stroke-linecap:butt;stroke-linejoin:miter;stroke-miterlimit:4;stroke-dasharray:none;stroke-opacity:1;paint-order:normal" />
    <path
       inkscape:connector-curvature="0"
       id="path845"
       transform="matrix(0.26458333,0,0,0.26458333,0,217.62499)"
       d="m 244.9668,40.111328 c -22.11663,-0.15443 -45.42796,15.679073 -62.84961,29.708984 -0.88065,0.709199 -1.7585,1.451949 -2.63477,2.214844 -0.29922,0.271579 -0.59954,0.529422 -0.89844,0.804688 -0.13369,0.119291 -0.26682,0.242832 -0.40039,0.363281 -2.62118,2.429798 -5.22795,5.005272 -7.80664,7.726563 -6.82165,7.343491 -13.33102,15.817939 -19.19531,24.279292 0.16838,0.25185 34.79606,52.08002 40.89844,89.94336 4.10986,25.50044 6.95356,77.12027 -30.41016,88.41407 0,0 51.25504,-7.20717 97.4043,-87.03321 25.25044,-43.67459 29.62727,-75.78767 29.28906,-100.367184 C 288.0796,75.549018 282.24899,60.36535 272.72852,51.003906 264.09877,43.317363 254.6481,40.178928 244.9668,40.111328 Z"
       style="fill:url(#linearGradient876-2);fill-opacity:1;stroke:#974242;stroke-width:0;stroke-linecap:butt;stroke-linejoin:miter;stroke-miterlimit:4;stroke-dasharray:none;stroke-opacity:1" />
    <path
       inkscape:connector-curvature="0"
       id="path849"
       transform="matrix(0.26458333,0,0,0.26458333,0,217.62499)"
       d="m 16.865234,70.390625 c 0,0 -19.3848768,47.991645 26.671875,127.871095 25.198092,43.70483 50.890945,63.42561 72.275391,75.54883 39.34918,22.30775 66.40591,9.71889 76.26172,-27.49805 3.82457,-17.62026 2.18109,-37.28992 0.11133,-50.44336 -1.0869,-5.61989 -2.45985,-11.34209 -4.09961,-16.98242 -2.92835,-9.28227 -6.88992,-18.81816 -11.14844,-27.83203 -0.10466,-0.18913 -0.20702,-0.38481 -0.3125,-0.57227 0,0 -36.26051,6.63616 -93.642578,-7.95312 C 53.801117,135.11001 7.9640894,108.39544 16.865234,70.390625 Z"
       style="fill:url(#linearGradient851-8);fill-opacity:1;stroke:#974242;stroke-width:0;stroke-linecap:butt;stroke-linejoin:miter;stroke-miterlimit:4;stroke-dasharray:none;stroke-opacity:1" />
  </g>
</svg>

<?xml version="1.0" encoding="UTF-8" standalone="no"?>
<svg
   xmlns:dc="http://purl.org/dc/elements/1.1/"
   xmlns:cc="http://creativecommons.org/ns#"
   xmlns:rdf="http://www.w3.org/1999/02/22-rdf-syntax-ns#"
   xmlns:svg="http://www.w3.org/2000/svg"
   xmlns="http://www.w3.org/2000/svg"
   xmlns:xlink="http://www.w3.org/1999/xlink"
   id="svg8"
   version="1.1"
   viewBox="0 0 79.374998 79.375002"
   height="300"
   width="300">
  <defs
     id="defs2">
    <linearGradient
       id="linearGradient863">
      <stop
         style="stop-color:#ffffff;stop-opacity:0"
         offset="0"
         id="stop859" />
      <stop
         style="stop-color:#ffffff;stop-opacity:1"
         offset="1"
         id="stop861" />
    </linearGradient>
    <linearGradient
       id="linearGradient857">
      <stop
         style="stop-color:#ffffff;stop-opacity:0"
         offset="0"
         id="stop853" />
      <stop
         style="stop-color:#ffffff;stop-opacity:1"
         offset="1"
         id="stop855" />
    </linearGradient>
    <linearGradient
       id="linearGradient837">
      <stop
         id="stop833"
         offset="0"
         style="stop-color:#ffffff;stop-opacity:0" />
      <stop
         id="stop835"
         offset="1"
         style="stop-color:#ffffff;stop-opacity:1" />
    </linearGradient>
    <linearGradient
       gradientTransform="matrix(3.7795276,0,0,3.7795276,-4.2857144,-824.30536)"
       gradientUnits="userSpaceOnUse"
       y2="238.11837"
       x2="72.563675"
       y1="238.11837"
       x1="4.8819404"
       id="linearGradient839"
       xlink:href="#linearGradient863" />
    <linearGradient
       y2="238.11837"
       x2="72.563675"
       y1="238.11837"
       x1="4.8819404"
       gradientTransform="rotate(120,40.607574,253.35547)"
       gradientUnits="userSpaceOnUse"
       id="linearGradient847"
       xlink:href="#linearGradient837" />
    <linearGradient
       y2="238.11837"
       x2="72.563675"
       y1="238.11837"
       x1="4.8819404"
       gradientTransform="matrix(-1.8897638,-3.2731669,3.2731669,-1.8897638,-602.95017,749.2545)"
       gradientUnits="userSpaceOnUse"
       id="linearGradient851"
       xlink:href="#linearGradient857" />
    <linearGradient
       y2="238.11837"
       x2="72.563675"
       y1="238.11837"
       x1="4.8819404"
       gradientTransform="matrix(-1.8897638,3.2731669,-3.2731669,-1.8897638,1059.4909,480.91096)"
       gradientUnits="userSpaceOnUse"
       id="linearGradient876"
       xlink:href="#linearGradient837" />
    <linearGradient
       y2="238.11837"
       x2="72.563675"
       y1="238.11837"
       x1="4.8819404"
       gradientTransform="matrix(3.7795276,0,0,3.7795276,-4.2857143,-824.30535)"
       gradientUnits="userSpaceOnUse"
       id="linearGradient886"
       xlink:href="#linearGradient863" />
  </defs>
  <metadata
     id="metadata5">
    <rdf:RDF>
      <cc:Work
         rdf:about="">
        <dc:format>image/svg+xml</dc:format>
        <dc:type
           rdf:resource="http://purl.org/dc/dcmitype/StillImage" />
        <dc:title></dc:title>
      </cc:Work>
    </rdf:RDF>
  </metadata>
  <g
     transform="translate(0,-217.62499)"
     id="layer1">
    <path
       id="path823"
       transform="matrix(0.26458333,0,0,0.26458333,0,217.62499)"
       d="M 149.64453 11.066406 C 99.196027 11.03617 69.197455 23.300162 48.080078 35.882812 C 30.065194 46.616863 19.726883 58.776717 16.517578 71.382812 C 16.71696 70.794201 16.865234 70.390625 16.865234 70.390625 C 14.639948 79.891829 15.836435 88.687499 19.337891 96.652344 C 19.351202 96.680777 19.363575 96.70985 19.376953 96.738281 C 23.536067 105.5771 30.964411 114.31604 41.443359 122.63672 C 54.540957 132.46022 70.326434 139.31154 82.982422 142.5293 C 89.699021 144.23698 96.113006 145.6437 102.22656 146.81445 C 109.42237 148.07952 116.84356 149.14629 124.47852 150.21289 C 124.47852 150.21289 135.5247 127.79979 151.18164 105.20898 C 151.27202 105.07858 151.36635 104.94876 151.45703 104.81836 C 152.091 103.90667 152.72849 102.99633 153.37695 102.08594 C 153.44375 101.99218 153.51119 101.89841 153.57812 101.80469 C 158.7865 94.511104 164.44117 87.325697 170.33008 80.980469 C 170.34564 80.963701 170.36139 80.946442 170.37695 80.929688 C 170.38016 80.926307 170.38351 80.923302 170.38672 80.919922 C 172.94434 78.167155 175.54498 75.584579 178.17188 73.214844 C 178.17587 73.211134 178.17959 73.206834 178.18359 73.203125 C 178.31716 73.082676 178.45029 72.959135 178.58398 72.839844 C 178.59323 72.831329 178.60208 72.822935 178.61133 72.814453 C 178.90113 72.556064 179.19009 72.289933 179.48047 72.037109 C 179.48047 72.037109 179.48242 72.035156 179.48242 72.035156 C 180.35869 71.272261 181.23654 70.529511 182.11719 69.820312 C 183.50776 68.700462 184.94814 67.569333 186.41016 66.435547 C 186.80311 66.130806 187.19596 65.828355 187.59375 65.523438 C 188.92841 64.500354 190.28625 63.47937 191.67188 62.462891 C 191.90057 62.295111 192.12155 62.126374 192.35156 61.958984 C 192.54215 61.820288 192.73627 61.683313 192.92773 61.544922 C 193.83264 60.890863 194.74817 60.242717 195.67188 59.597656 C 196.01006 59.361478 196.34886 59.127222 196.68945 58.892578 C 197.56287 58.290853 198.44372 57.695042 199.33203 57.105469 C 199.59721 56.929469 199.85856 56.750917 200.125 56.576172 C 201.2452 55.841475 202.37656 55.121001 203.51758 54.412109 C 203.82151 54.22328 204.12829 54.040251 204.43359 53.853516 C 205.31728 53.313023 206.20515 52.780903 207.09961 52.259766 C 207.47751 52.039589 207.85469 51.819896 208.23438 51.603516 C 209.40968 50.933717 210.59039 50.275934 211.78125 49.646484 C 212.97692 49.014492 214.18171 48.413368 215.39062 47.828125 C 216.0447 47.511477 216.70001 47.198075 217.35742 46.896484 C 217.50868 46.827096 217.65913 46.754107 217.81055 46.685547 C 218.68628 46.289027 219.56463 45.910448 220.44531 45.542969 C 220.6508 45.457227 220.85678 45.3751 221.0625 45.291016 C 221.85325 44.967811 222.64557 44.655109 223.43945 44.357422 C 223.56901 44.308845 223.69851 44.258808 223.82812 44.210938 C 224.7489 43.870865 225.66987 43.549143 226.59375 43.246094 C 226.74064 43.197913 226.8882 43.154629 227.03516 43.107422 C 227.82867 42.852503 228.62297 42.612303 229.41797 42.386719 C 229.60608 42.333343 229.79425 42.27824 229.98242 42.226562 C 230.87911 41.980296 231.77633 41.751224 232.67383 41.544922 C 232.84959 41.504521 233.0254 41.470456 233.20117 41.431641 C 233.97543 41.260662 234.74934 41.106094 235.52344 40.966797 C 235.71233 40.932805 235.90099 40.897285 236.08984 40.865234 C 237.01236 40.70868 237.93431 40.569653 238.85547 40.460938 C 238.9376 40.451245 239.01944 40.444848 239.10156 40.435547 C 239.94021 40.340542 240.77858 40.27191 241.61523 40.21875 C 241.81586 40.206009 242.01632 40.191908 242.2168 40.181641 C 243.1352 40.13458 244.05199 40.10494 244.9668 40.111328 C 245.50735 40.115103 246.04692 40.131163 246.58594 40.154297 C 246.82905 40.164751 247.07169 40.182789 247.31445 40.197266 C 247.63298 40.216224 247.95163 40.235754 248.26953 40.261719 C 248.51781 40.282035 248.7658 40.305422 249.01367 40.330078 C 249.32466 40.360952 249.63499 40.39581 249.94531 40.433594 C 250.18642 40.463006 250.42729 40.493699 250.66797 40.527344 C 251.04829 40.580419 251.42745 40.641297 251.80664 40.705078 C 251.96341 40.731488 252.12078 40.752985 252.27734 40.78125 C 252.82923 40.880727 253.38046 40.990415 253.92969 41.113281 C 253.93881 41.115325 253.94791 41.117091 253.95703 41.119141 C 253.99888 41.128533 254.0402 41.14086 254.08203 41.150391 C 254.59914 41.268197 255.11438 41.39605 255.62891 41.535156 C 255.74761 41.567292 255.86582 41.603433 255.98438 41.636719 C 256.43514 41.763108 256.88536 41.897801 257.33398 42.041016 C 257.44664 42.077024 257.55937 42.113308 257.67188 42.150391 C 258.13354 42.302362 258.59352 42.46449 259.05273 42.634766 C 259.15897 42.674203 259.265 42.713477 259.37109 42.753906 C 259.85987 42.939946 260.34822 43.136407 260.83398 43.34375 C 260.89563 43.37009 260.95794 43.393235 261.01953 43.419922 C 262.15908 43.913131 263.28889 44.467094 264.41016 45.082031 C 264.41222 45.083163 264.41395 45.084805 264.41602 45.085938 C 264.4206 45.08845 264.42511 45.091234 264.42969 45.09375 C 264.97025 45.390596 265.509 45.703179 266.04492 46.029297 C 266.09407 46.059222 266.1423 46.09092 266.19141 46.121094 C 266.70354 46.435591 267.21306 46.763582 267.7207 47.105469 C 267.75775 47.130434 267.795 47.154575 267.83203 47.179688 C 269.48939 48.303211 271.12226 49.57315 272.72656 51.001953 C 272.72656 51.001953 272.72852 51.003906 272.72852 51.003906 C 273.05985 51.299026 273.39183 51.593709 273.7207 51.902344 C 273.7207 51.902344 241.85054 11.119811 149.64453 11.066406 z "
       style="fill:url(#linearGradient886);fill-opacity:1;stroke:#974242;stroke-width:0;stroke-linecap:butt;stroke-linejoin:miter;stroke-miterlimit:4;stroke-dasharray:none;stroke-opacity:1" />
    <rect
       y="216.20758"
       x="-3.0238097"
       height="83.816216"
       width="84.855659"
       id="rect841"
       style="opacity:0;fill:#ffffff;fill-opacity:1;fill-rule:evenodd;stroke:#974242;stroke-width:0;stroke-linecap:butt;stroke-linejoin:miter;stroke-miterlimit:4;stroke-dasharray:none;stroke-opacity:1;paint-order:normal" />
    <path
       id="path845"
       transform="matrix(0.26458333,0,0,0.26458333,0,217.62499)"
       d="M 244.9668 40.111328 C 222.85017 39.956898 199.53884 55.790401 182.11719 69.820312 C 181.23654 70.529511 180.35869 71.272261 179.48242 72.035156 C 179.1832 72.306735 178.88288 72.564578 178.58398 72.839844 C 178.45029 72.959135 178.31716 73.082676 178.18359 73.203125 C 175.56241 75.632923 172.95564 78.208397 170.37695 80.929688 C 163.5553 88.273179 157.04593 96.747627 151.18164 105.20898 C 151.35002 105.46083 185.9777 157.289 192.08008 195.15234 C 196.18994 220.65278 199.03364 272.27261 161.66992 283.56641 C 161.66992 283.56641 212.92496 276.35924 259.07422 196.5332 C 284.32466 152.85861 288.70149 120.74553 288.36328 96.166016 C 288.0796 75.549018 282.24899 60.36535 272.72852 51.003906 C 264.09877 43.317363 254.6481 40.178928 244.9668 40.111328 z "
       style="fill:url(#linearGradient876);fill-opacity:1;stroke:#974242;stroke-width:0;stroke-linecap:butt;stroke-linejoin:miter;stroke-miterlimit:4;stroke-dasharray:none;stroke-opacity:1" />
    <path
       id="path849"
       transform="matrix(0.26458333,0,0,0.26458333,0,217.62499)"
       d="M 16.865234 70.390625 C 16.865234 70.390625 -2.5196428 118.38227 43.537109 198.26172 C 68.735201 241.96655 94.428054 261.68733 115.8125 273.81055 C 155.16168 296.1183 182.21841 283.52944 192.07422 246.3125 C 195.89879 228.69224 194.25531 209.02258 192.18555 195.86914 C 191.09865 190.24925 189.7257 184.52705 188.08594 178.88672 C 185.15759 169.60445 181.19602 160.06856 176.9375 151.05469 C 176.83284 150.86556 176.73048 150.66988 176.625 150.48242 C 176.625 150.48242 140.36449 157.11858 82.982422 142.5293 C 53.801117 135.11001 7.9640894 108.39544 16.865234 70.390625 z "
       style="fill:url(#linearGradient851);fill-opacity:1;stroke:#974242;stroke-width:0;stroke-linecap:butt;stroke-linejoin:miter;stroke-miterlimit:4;stroke-dasharray:none;stroke-opacity:1" />
  </g>
</svg>
